packages/core/src/svgs/tokens/mono/MNB.svg

<svg width="24" height="24" viewBox="0 0 24 24" fill="none" xmlns="http://www.w3.org/2000/svg">
<path d="M11.9999 2L14.3528 3.4V5.28235L19.6469 8.41175V12.7294L18.4705 13.4941V9.05881L12.0528 5.20588L11.7175 4.95883L12.7881 4.35294L13.4235 4.72942V3.94118L11.9999 3.10589L10.5764 3.94707V5.64117L11.9999 6.48235L12.5352 6.1647L13.4646 6.71765L12.5881 7.24118V8.44117L16.1175 10.5353V14.7705L17.2058 15.4118L19.0176 14.3529L21.4117 15.7529V18.5412L19.0176 19.9412L17.2352 18.9L11.9999 22L8.47047 19.9117V18.5883L11.9999 20.7058L18.341 16.9L18.9057 16.6V17.9058L18.1704 18.3412L19.0176 18.8294L20.4646 17.9882V16.2941L19.0176 15.453L17.5646 16.2941V16.9176L16.6234 17.4706V16.1764L15.7293 15.6588L11.9999 17.8824L8.294 15.6823L7.294 16.2706V18.5471L4.94106 19.9412L2.58813 18.5412V15.7529L4.35283 14.7V8.41175L7.99988 6.25294L9.11753 6.89999L5.52929 9.05881V17.3235L4.35283 16.6059V15.8058L3.51754 16.3V17.9941L4.94106 18.8353L6.3646 17.9941V16.2941L5.91753 16.0294V14.9411L6.78812 15.453L7.88224 14.8117V10.5294L11.4116 8.43529V7.23529L9.64691 6.18235V3.38823L11.9999 2ZM14.0293 11.3941L11.9999 10.1824L9.98222 11.3882L12.0351 12.547L14.0352 11.3941H14.0293ZM9.641 14.3883L11.6998 15.6118V13.1765L9.641 11.9589V14.3883ZM12.3293 15.5882L14.3528 14.3883V12L12.3352 13.1765V15.5824L12.3293 15.5882Z" fill="white"/>
</svg>

<svg xmlns="http://www.w3.org/2000/svg" width="24" height="24" fill="none" viewBox="0 0 24 24">
    <path fill="#fff" d="m12 2 2.353 1.4v1.882l5.294 3.13v4.317l-1.176.765V9.06l-6.418-3.853-.336-.247 1.071-.606.636.376v-.788L12 3.106l-1.424.841v1.694L12 6.482l.535-.317.93.553-.877.523v1.2l3.53 2.094v4.236l1.088.64 1.812-1.058 2.394 1.4v2.788l-2.394 1.4-1.783-1.041L12 22l-3.53-2.088v-1.324L12 20.706l6.34-3.806.565-.3v1.306l-.736.435.848.488 1.447-.84v-1.695l-1.447-.841-1.453.841v.624l-.942.553v-1.295l-.894-.517L12 17.882l-3.705-2.2-1 .589v2.276l-2.353 1.394-2.353-1.4v-2.788L4.353 14.7V8.412L8 6.252l1.118.648-3.589 2.159v8.265l-1.176-.718v-.8l-.835.494v1.694l1.423.841 1.424-.84v-1.7l-.447-.266v-1.088l.87.512 1.094-.641v-4.283l3.53-2.094v-1.2L9.647 6.182V3.388zm2.03 9.394L12 10.182l-2.018 1.206 2.053 1.159 2-1.153zm-4.39 2.994 2.059 1.224v-2.435L9.64 11.959zm2.688 1.2 2.024-1.2V12l-2.018 1.177v2.405z"/>
</svg>
